blockchains/ethereum/assets/0x4CC19356f2D37338b9802aa8E8fc58B0373296E7/logo.svg

<svg fill="none" height="250" viewBox="0 0 250 250" width="250" xmlns="http://www.w3.org/2000/svg" xmlns:xlink="http://www.w3.org/1999/xlink"><linearGradient id="a"><stop offset="0" stop-color="#08bccd"/><stop offset=".9996" stop-color="#26a5f1"/></linearGradient><linearGradient id="b" gradientUnits="userSpaceOnUse" x1="125.428" x2="125.428" xlink:href="#a" y1="246.728" y2="-.014382"/><linearGradient id="c" gradientUnits="userSpaceOnUse" x1="118.903" x2="118.903" xlink:href="#a" y1="246.727" y2="-.104654"/><path d="m125.45 1.75-106.8499 61.7v123.35l106.8499 61.7 106.85-61.7v-123.35zm26.45 59.8h-27.4v18.2h20.2c3.25 0 5.9 2.65 5.9 5.9s-2.65 5.9-5.9 5.9h-20.2v56.35c12.6 2.6 22.15 13.8 22.15 27.15 0 15.3-12.45 27.75-27.75 27.75s-27.7499-12.45-27.7499-27.75c0-13.15 9.1999-24.2 21.5499-27v-92.45c0-3.25 2.65-5.9 5.9-5.9h33.3c3.25 0 5.9 2.65 5.9 5.9.05 3.3-2.6 5.95-5.9 5.95z" fill="url(#b)"/><path d="m118.9 190.999c8.781 0 15.9-7.118 15.9-15.9 0-8.781-7.119-15.9-15.9-15.9s-15.9 7.119-15.9 15.9c0 8.782 7.119 15.9 15.9 15.9z" fill="url(#c)"/></svg>

<svg width="250" height="250" viewBox="0 0 250 250" fill="none" xmlns="http://www.w3.org/2000/svg">
<path d="M125.45 1.75L18.6001 63.45V186.8L125.45 248.5L232.3 186.8V63.45L125.45 1.75ZM151.9 61.55H124.5V79.75H144.7C147.95 79.75 150.6 82.4 150.6 85.65C150.6 88.9 147.95 91.55 144.7 91.55H124.5V147.9C137.1 150.5 146.65 161.7 146.65 175.05C146.65 190.35 134.2 202.8 118.9 202.8C103.6 202.8 91.1501 190.35 91.1501 175.05C91.1501 161.9 100.35 150.85 112.7 148.05V55.6C112.7 52.35 115.35 49.7 118.6 49.7H151.9C155.15 49.7 157.8 52.35 157.8 55.6C157.85 58.9 155.2 61.55 151.9 61.55Z" fill="url(#paint0_linear_37_33567)"/>
<path d="M118.9 190.999C127.681 190.999 134.8 183.881 134.8 175.099C134.8 166.318 127.681 159.199 118.9 159.199C110.119 159.199 103 166.318 103 175.099C103 183.881 110.119 190.999 118.9 190.999Z" fill="url(#paint1_linear_37_33567)"/>
<defs>
<linearGradient id="paint0_linear_37_33567" x1="125.428" y1="246.728" x2="125.428" y2="-0.0143817" gradientUnits="userSpaceOnUse">
<stop stop-color="#08BCCD"/>
<stop offset="0.9996" stop-color="#26A5F1"/>
</linearGradient>
<linearGradient id="paint1_linear_37_33567" x1="118.903" y1="246.727" x2="118.903" y2="-0.104654" gradientUnits="userSpaceOnUse">
<stop stop-color="#08BCCD"/>
<stop offset="0.9996" stop-color="#26A5F1"/>
</linearGradient>
</defs>
</svg>
